storage/app/icons/simpleicons/brands/gsap.svg

<svg xmlns="http://www.w3.org/2000/svg" viewBox="0 0 24 24"><title>GSAP</title><path d="M9.83 7.59c.817.005 1.437.238 1.842.692.383.431.567 1.054.547 1.85l-.014.061a.16.16 0 0 1-.148.095h-1.659a.2.2 0 0 1-.199-.195q.002-.634-.39-.71l-.12-.011c-.342 0-.564.211-.57.579-.007.41.225.783.885 1.423.868.816 1.217 1.539 1.2 2.493-.027 1.544-1.077 2.543-2.673 2.543-.815 0-1.438-.219-1.853-.649-.42-.437-.612-1.078-.572-1.906a.17.17 0 0 1 .049-.112.16.16 0 0 1 .112-.045h1.716a.2.2 0 0 1 .069.017.17.17 0 0 1 .083.098q.008.03.002.06c-.019.298.034.521.151.645a.4.4 0 0 0 .311.121c.317 0 .503-.225.51-.615.006-.337-.102-.634-.682-1.232-.751-.734-1.424-1.492-1.403-2.684a2.48 2.48 0 0 1 .774-1.781c.514-.482 1.216-.737 2.032-.737m-5.783.028c.747-.006 1.334.224 1.742.685.432.487.651 1.221.652 2.182a.16.16 0 0 1-.161.158H4.479a.13.13 0 0 1-.084-.036.13.13 0 0 1-.035-.085c-.014-.623-.188-.946-.532-.984l-.071-.004c-.69.001-1.097.938-1.313 1.458a5.5 5.5 0 0 0-.426 2.301c.015.366.074.88.42 1.093.308.189.747.064 1.013-.146.265-.209.479-.571.569-.901q.02-.07.001-.098-.01-.011-.032-.015l-.504-.004a.18.18 0 0 1-.129-.06.1.1 0 0 1-.025-.05.1.1 0 0 1 0-.056l.316-1.374a.18.18 0 0 1 .157-.134v-.003h3.035l.021.001c.079.01.135.084.134.164v.004l-.316 1.371c-.017.078-.095.135-.184.135h-.381a.064.064 0 0 0-.061.046c-.352 1.194-.829 2.016-1.458 2.509-.536.42-1.195.616-2.077.616-.792 0-1.326-.255-1.779-.758-.598-.666-.845-1.754-.695-3.067.27-2.463 1.546-4.948 4.004-4.948m16.969.132c2.01 0 3.014.912 2.983 2.711-.037 2.108-1.321 3.658-3.254 4.016q-.413.073-.833.068l-.934-.004a.06.06 0 0 0-.058.057q0 .015.008.029a.1.1 0 0 0 .022.021l.794.414q.098.053.076.164l-.207.933c-.017.078-.08.123-.171.123h-1.703a.2.2 0 0 1-.071-.015.2.2 0 0 1-.058-.044.12.12 0 0 1-.025-.107l1.896-8.241c.019-.086.1-.124.172-.124zm-3.743.012a.2.2 0 0 1 .051.033.2.2 0 0 1 .034.052.2.2 0 0 1 .011.059l-.011 8.213a.14.14 0 0 1-.003.058.14.14 0 0 1-.081.091.14.14 0 0 1-.064.013h-1.813a.16.16 0 0 1-.111-.045.2.2 0 0 1-.033-.051.2.2 0 0 1-.012-.06l.039-.797c.002-.087 0-.111-.051-.117l-.068-.002h-1.714c-.124 0-.133.011-.177.125l-.356.857q-.048.09-.192.09h-1.795c-.109 0-.187-.108-.146-.209l3.718-8.199c.025-.049.063-.123.149-.123h2.566q.03 0 .059.012M15.5 9.985c-.008-.032-.034-.029-.055.013a1 1 0 0 0-.04.093l-1.284 3.183-.016.048q-.002.01-.001.019l.007.017a.04.04 0 0 0 .015.012.04.04 0 0 0 .017.006l1.072.014c.119-.01.125-.016.137-.137.002-.043.154-3.231.148-3.268m4.612-.403a.06.06 0 0 0-.04.017.06.06 0 0 0-.018.04.06.06 0 0 0 .03.051l.842.445c.042.023.043.063.029.132-.007.031-.54 2.375-.539 2.377.003.003.019.011.099.011h.036c.895-.036 1.383-1.094 1.401-2.121.009-.555-.18-.896-.523-.946l-.071-.006z"/></svg>

<svg role="img" viewBox="0 0 24 24" xmlns="http://www.w3.org/2000/svg"><title>GSAP</title><path d="M9.83,7.59C10.647,7.595 11.267,7.828 11.672,8.282C12.055,8.713 12.239,9.336 12.219,10.132L12.205,10.193C12.197,10.211 12.185,10.229 12.17,10.243C12.14,10.272 12.099,10.288 12.057,10.288L10.398,10.288C10.29,10.288 10.199,10.2 10.199,10.093C10.199,9.669 10.071,9.435 9.809,9.383L9.689,9.372C9.347,9.372 9.125,9.583 9.119,9.951C9.112,10.361 9.344,10.734 10.004,11.374C10.872,12.19 11.221,12.913 11.204,13.867C11.177,15.411 10.127,16.41 8.531,16.41C7.716,16.41 7.093,16.191 6.678,15.761C6.258,15.324 6.066,14.683 6.106,13.855C6.108,13.813 6.125,13.772 6.155,13.743C6.185,13.714 6.226,13.698 6.267,13.698L7.983,13.698C8.007,13.699 8.03,13.705 8.052,13.715C8.073,13.726 8.092,13.741 8.107,13.76C8.12,13.775 8.129,13.793 8.135,13.813C8.14,13.832 8.141,13.853 8.137,13.873C8.118,14.171 8.171,14.394 8.288,14.518C8.363,14.598 8.469,14.639 8.599,14.639C8.916,14.639 9.102,14.414 9.109,14.024C9.115,13.687 9.007,13.39 8.427,12.792C7.676,12.058 7.003,11.3 7.024,10.108C7.037,9.416 7.311,8.784 7.798,8.327C8.312,7.845 9.014,7.59 9.83,7.59ZM4.047,7.618C4.794,7.612 5.381,7.842 5.789,8.303C6.221,8.79 6.44,9.524 6.441,10.485C6.44,10.527 6.422,10.567 6.392,10.597C6.362,10.626 6.322,10.643 6.28,10.643L4.479,10.643C4.448,10.642 4.417,10.629 4.395,10.607C4.373,10.584 4.361,10.553 4.36,10.522C4.346,9.899 4.172,9.576 3.828,9.538L3.757,9.534C3.067,9.535 2.66,10.472 2.444,10.992C2.142,11.719 1.988,12.507 2.018,13.293C2.033,13.659 2.092,14.173 2.438,14.386C2.746,14.575 3.185,14.45 3.451,14.24C3.716,14.031 3.93,13.669 4.02,13.339C4.033,13.293 4.033,13.258 4.021,13.241C4.015,13.233 4.003,13.229 3.989,13.226L3.485,13.222C3.461,13.222 3.436,13.216 3.414,13.206C3.392,13.196 3.372,13.181 3.356,13.162C3.344,13.148 3.335,13.13 3.331,13.112C3.327,13.093 3.327,13.074 3.331,13.056L3.647,11.682C3.663,11.611 3.726,11.558 3.804,11.548L3.804,11.545L6.839,11.545C6.846,11.545 6.854,11.545 6.86,11.546C6.939,11.556 6.995,11.63 6.994,11.71L6.994,11.714L6.678,13.085C6.661,13.163 6.583,13.22 6.494,13.22L6.113,13.22C6.1,13.22 6.086,13.225 6.075,13.233C6.064,13.241 6.056,13.253 6.052,13.266C5.7,14.46 5.223,15.282 4.594,15.775C4.058,16.195 3.399,16.391 2.517,16.391C1.725,16.391 1.191,16.136 0.738,15.633C0.14,14.967 -0.107,13.879 0.043,12.566C0.313,10.103 1.589,7.618 4.047,7.618ZM21.016,7.75C23.026,7.75 24.03,8.662 23.999,10.461C23.962,12.569 22.678,14.119 20.745,14.477C20.47,14.527 20.191,14.547 19.912,14.545L18.978,14.541C18.963,14.541 18.948,14.547 18.937,14.558C18.926,14.568 18.92,14.583 18.92,14.598C18.92,14.608 18.922,14.618 18.928,14.627C18.933,14.636 18.941,14.643 18.95,14.648L19.744,15.062C19.809,15.096 19.835,15.153 19.82,15.226C19.815,15.249 19.618,16.139 19.613,16.159C19.596,16.237 19.533,16.282 19.442,16.282L17.739,16.282C17.715,16.282 17.69,16.277 17.668,16.267C17.646,16.257 17.626,16.241 17.61,16.223C17.598,16.208 17.589,16.191 17.585,16.173C17.58,16.155 17.581,16.135 17.585,16.116L19.481,7.875C19.5,7.789 19.581,7.751 19.653,7.751L21.016,7.75ZM17.273,7.762C17.292,7.77 17.31,7.781 17.324,7.795C17.338,7.81 17.351,7.828 17.358,7.847C17.366,7.866 17.369,7.886 17.369,7.906L17.358,16.119C17.361,16.138 17.36,16.158 17.355,16.177C17.35,16.196 17.34,16.213 17.328,16.228C17.313,16.245 17.295,16.259 17.274,16.268C17.254,16.277 17.232,16.282 17.21,16.281L15.397,16.281C15.377,16.282 15.356,16.277 15.337,16.27C15.318,16.262 15.3,16.25 15.286,16.236C15.272,16.221 15.26,16.204 15.253,16.185C15.245,16.166 15.241,16.146 15.241,16.125L15.28,15.328C15.282,15.241 15.28,15.217 15.229,15.211L15.161,15.209L13.447,15.209C13.323,15.209 13.314,15.22 13.27,15.334L12.914,16.191C12.882,16.252 12.818,16.281 12.722,16.281L10.927,16.281C10.818,16.281 10.74,16.173 10.781,16.072L14.499,7.873C14.524,7.824 14.562,7.75 14.648,7.75L17.214,7.75C17.234,7.75 17.254,7.754 17.273,7.762ZM15.5,9.985C15.492,9.953 15.466,9.956 15.445,9.998C15.43,10.028 15.416,10.06 15.405,10.091L14.121,13.274C14.114,13.294 14.109,13.31 14.105,13.322C14.104,13.328 14.103,13.335 14.104,13.341C14.105,13.347 14.108,13.353 14.111,13.358C14.115,13.363 14.12,13.367 14.126,13.37C14.131,13.373 14.137,13.376 14.143,13.376L15.215,13.39C15.334,13.38 15.34,13.374 15.352,13.253C15.354,13.21 15.506,10.022 15.5,9.985ZM20.112,9.582C20.097,9.582 20.083,9.588 20.072,9.599C20.061,9.609 20.055,9.624 20.054,9.639C20.054,9.649 20.057,9.659 20.062,9.668C20.068,9.677 20.075,9.685 20.084,9.69C20.097,9.697 20.869,10.104 20.926,10.135C20.968,10.158 20.969,10.198 20.955,10.267C20.948,10.298 20.415,12.642 20.416,12.644C20.419,12.647 20.435,12.655 20.515,12.655L20.551,12.655C21.446,12.619 21.934,11.561 21.952,10.534C21.961,9.979 21.772,9.638 21.429,9.588L21.358,9.582L20.112,9.582Z"/></svg>
